X:1
T:Ariel, 88.68.86
T:Arranged from Mozart by Lowell Mason, 1836
T:Ariel, 88.68.86
T:Public Domain
C:Arranged from Mozart by Lowell Mason, 1836
Z:Public Domain
%%score ( 1 2 ) ( 3 4 )
L:1/8
M:3/4
K:D
V:1 treble 
V:2 treble 
V:3 bass 
V:4 bass 
V:1
 [FA]2 | ([FA]2 [DF]2) [DF]2 | ([DF]2 [A,D]2) [A,D]2 | (D2 C2) [A,D][DF] | [DF]2 [CE]2 [CE]2 | %5
 [DF]>[EG] [FA][DA] [DB][Gc] | [Fd]4 ([Ec]e) | [Ee][Ed] [Ec]2 [DB]2 | [CA]4 ([DF][EG]) | %9
 [FA]>[Fd] [Fd]2 [FA]2 | [GB]>[GB] [FA]2 ([DF][EG]) | [FA]>[Fd] [Fd]2 [FA]2 | %12
 [GB]>[GB] [FA]2 ([DF][CE]) | D3 [B,D] [B,D][B,D] | [CE]3 [CE] [CE][CE] | [DF]4 [CE]2 | D4 |] %17
V:2
 x2 | x6 | x6 | A,4 x2 | x6 | x6 | x6 | x6 | x6 | x6 | x6 | x6 | x6 | D3 x3 | x6 | x6 | D4 |] %17
V:3
 [D,D]2 | (D2 A,2) [D,A,]2 | (A,2 F,2) [F,A,]2 | [E,G,]4 (F,A,) | [A,,A,]4 [A,,A,]2 | %5
 [D,A,]>[D,A,] [D,A,][F,D] [G,D][E,A,] | [D,A,]4 (A,C) | [E,C][E,B,] [E,A,]2 [E,^G,]2 | %8
 [A,,A,]4 [D,A,]2 | [D,A,]>[D,A,] [D,A,]2 [D,D]2 | [G,D]>[G,D] [D,D]2 [D,A,]2 | %11
 [D,A,]>[D,A,] [D,A,]2 [D,D]2 | [G,D]>[G,D] [D,D]2 ([D,A,][A,,G,]) | %13
 [B,,F,]3 [B,,F,] [B,,F,][B,,F,] | [A,,A,]3 [A,,A,] [A,,A,][A,,A,] | (D,F, A,2) [A,,G,]2 | %16
 [D,F,]4 |] %17
V:4
 x2 | D,4 x2 | D,4 x2 | x4 D,2 | x6 | x6 | x4 A,,2 | x6 | x6 | x6 | x6 | x6 | x6 | x6 | x6 | %15
 A,4 x2 | x4 |] %17

